packages/ffe-icons/icons/open/500/md/go_to_line.svg

<svg xmlns="http://www.w3.org/2000/svg" height="24" viewBox="0 -960 960 960" width="24"><path d="M480-674.5q-27.292 0-46.396-19.104T414.5-740q0-27.292 19.104-46.396T480-805.5q27.292 0 46.396 19.104T545.5-740q0 27.292-19.104 46.396T480-674.5Zm0 520q-27.292 0-46.396-19.104T414.5-220q0-27.292 19.104-46.396T480-285.5q27.292 0 46.396 19.104T545.5-220q0 27.292-19.104 46.396T480-154.5Z"/></svg>

<svg xmlns="http://www.w3.org/2000/svg" height="24" viewBox="0 -960 960 960" width="24"><path d="M480-674.5q-27.29 0-46.4-19.1-19.1-19.11-19.1-46.4t19.1-46.4q19.11-19.1 46.4-19.1t46.4 19.1q19.1 19.11 19.1 46.4t-19.1 46.4q-19.11 19.1-46.4 19.1Zm0 520q-27.29 0-46.4-19.1-19.1-19.11-19.1-46.4t19.1-46.4q19.11-19.1 46.4-19.1t46.4 19.1q19.1 19.11 19.1 46.4t-19.1 46.4q-19.11 19.1-46.4 19.1Z"/></svg>
